X: 14
T: Sonata in D major, L.15, K.160
C: Domenico Scarlatti
%%abc-version 2.0
%%abcx-abcm2ps-target-version 5.9.1 (29 Sep 2008)
%%abc-creator hum2abc beta
%%abcx-conversion-date 2021/06/28 10:15:41
%%abc-copyright 2021 Craig Stuart Sapp
%%abc-edited-by Craig Stuart Sapp
%%abc-edited-by Kelly Leistikow
%%abcx-initial-encoding-date 2005/08/07/
%%humdrum-veritas 3859795158
%%humdrum-veritas-data 4163639546
%%linebreak <none>
%%barnumbers 0
L: 1/16
M: 4/4
N: Derived from L015K160.krn
Q: "Allegro ([quarter]=126)" 1/4=126
%%staves {1 2}
V: 1 clef=treble
V: 2 clef=treble
K: D
[V:1] .d2.f2!accent!a4-a2.A2!accent!f4- | 
[V:2] d4z ecAd4z AFD | 
[V:1] fBgf fedc .d2.F2!accent!A4- | 
[V:2] G4A4D4z[K:clef=bass] ECA, | 
[V:1] A2.A,2!accent!F4-FB,GF FEDC | 
[V:2] D4z A,F,D,G,4A,4 | 
[V:1] DA,F,A,z4.!sfz!a2{/g}fe d2.=c2 | 
[V:2] D,4D,A,,F,,A,,D,,4z4 | 
[V:1] !accent!^A4<B4!sfz!e2cB =A2.G2 | 
[V:2] G2ED C2.B,2=A,4z4 | 
[V:1] !accent!^E4<F4.!sfz!a2{/g}f=e d2.=c2 | 
[V:2] D2.A,G, F,2.=E,2D,4z4 | 
[V:1] !accent!^A4<B4!sfz!e2cB =A2.G2 | 
[V:2] G2ED C2.B,2=A,4z4 | 
[V:1] !accent!^E4<F4fdAF D2G=E | 
[V:2] D2A,G, F,2.=E,2!accent!D,4DA,B,C | 
[V:1] fdAF D2GE fdAF D2GE | 
[V:2] !accent!D,4DA,B,C!accent!D,4DA,B,C | 
[V:1] [D4F4]>.d'4 c'age cAge | 
[V:2] D,,F,,A,,D, F,A,DF!accent!A,,4z4 | 
[V:1] [d4f4]>.d'4 c'age cAge | 
[V:2] D,,F,,A,,D, F,A,DF!accent!A,,4z4 | 
[V:1] [d4f4]z4d'b^gd B^GBg | 
[V:2] D,,F,,A,,D, F,A,DF!accent!E,,4z4 | 
[V:1] a4EAcA z fd'c' ba^ga | 
[V:2] C,E,A,Cz4!accent!D,4z4 | 
[V:1] ^gabd cagB Afe^G FdcE | 
[V:2] E,,4z4E,,4z4 | 
[V:1] DBAC ^GB,FA, ^G,E^DF, .E,2.E2 | 
[V:2] E,,4z4E,,4E,,4 | 
[V:1] !fermata!z16 ||  
[V:2] !fermata!z16 ||  
[V:1] x4A2G2 =F2=f4e2 & e2=cBx4z4^G2A2 | 
[V:2] z4E6D4=C2 | 
[V:1] d2=c'2b2a4<a4^g2 & d4>=c4 B2^d2e4 | 
[V:2] D4E4x8 & B,2A,2^G,2A,2E,4E4 | 
[V:1] !fermata!z8e2=cB A2=G2 | 
[V:2] !fermata!z8z4E4- | 
[V:1] =F2=f4e2 d2=c'2b2a2 & z4^G2A4<d4=c2 | 
[V:2] x8D4E4 & E2D4=C2 B,2A,2^G,2A,2 | 
[V:1] a4>^g4x4B^GEd & B2^d2e4=d'bg=dx4 | 
[V:2] E,4E4z8 | 
[V:1] c4z4d'b^gd B^GEd | 
[V:2] A,,C,E,A,[K:clef=treble] CEAc[K:clef=bass]E,,4z4 | 
[V:1] c4z4z c'ae cAce | 
[V:2] [K:clef=bass]A,,C,E,A,[K:clef=treble] CEAc[K:clef=bass]C,4z4 | 
[V:1] x8x2 !accent!a2x4 & fafd B^GBd ceaA ab^gd | 
[V:2] D,4z4E,4D,4 | 
[V:1] z d'c'b a^gfe ^efcd ^AB ^EF | 
[V:2] C,4A,4D,4z2 z2 | 
[V:1] CD=EF ^GdcB =AB/A/G/A/B2< !mordent!B2A | 
[V:2] z4[D,4B,4][E,4C4][D,4B,4] | 
[V:1] z d'c'b a^gfe ^efcd ^AB ^EF | 
[V:2] [C,4A,4]z4D,4z2 z2 | 
[V:1] CDEF ^GdcB AB/A/G/A/B2< !mordent!B2A | 
[V:2] z4[D,4B,4]E,4E,,4 | 
[V:1] AECA, CAB,^G cAEC EcBD | 
[V:2] !accent!A,,4>.[E,,4E,4]!accent!A,,6[E,,2E,2] | 
[V:1] ecAE AedB aecA caB^g | 
[V:2] !accent!A,,4>.[E,,4E,4]!accent!A,,6.[E,,2E,2] | 
[V:1] c'aec ec'bd aecA caB^g | 
[V:2] !accent!A,,4>.[E,,4E,4]!accent!A,,6.[E,,2E,2] | 
[V:1] caB^g caBg {/!accent!g/}a4z4 :|]|:  
[V:2] .[A,,2A,2].[E,,2E,2] .[A,,2A,2].[E,,2E,2]!accent![A,,4A,4]z4 :|]|:  
[V:1] e2{/d}cB A2F4<=G4E2 | 
[V:2] z8E2CB, ^A,2G,2 | 
[V:1] ec^AF eddc dBFD dccB | 
[V:2] [F,4E4]z4[F,4B,4D4]z4 | 
[V:1] x12B4 & c^AGE cBBA BFDB, B^EFE | 
[V:2] x8.[B,2D2]x6 & [F,4C4E4]z4F,6F,2 | 
[V:1] ^A2B2A2B2 A2B2c2d2 & F^EFE FEFE FEFE FEFE | 
[V:2] [F,2C2][F,2D2][F,2C2][F,2D2] [F,2C2][F,2D2][F,2C2][F,2B,2] | 
[V:1] !mordent!c4!fermata!z4f2{/e}dc B2=A2 | 
[V:2] F,,4!fermata!z4z4F4- | 
[V:1] G4g6fe d2c2 & x4^A2B2c4z4 | 
[V:2] x4E4x8[K:clef=treble] & F2ED C2B,2[^A,4E4][F,4E4] | 
[V:1] d'2bax12 & d4^g2f2 bg^ec baag | 
[V:2] [B,4F4]B4[C4^G4]z4 | 
[V:1] afcA a^ggf g^edB gffe | 
[V:2] [C4F4A4]z4[C4^G4B4]z4 | 
[V:1] f4>f4 ^e2f2e2f2 & A^BcB cBcB cBcB cBcB | 
[V:2] [C4F4]>[C4A4] [C2^G2][C2A2][C2G2][C2A2] | 
[V:1] ^e2f2^g2a2x8 & c^BcB cBcB!mordent!g4!fermata!z4 | 
[V:2] [C2^G2][C2A2][C2G2][C2F2][K:clef=bass]C,4!fermata!z4 | 
[V:1] ^g2ab agf^ef4z4 | 
[V:2] z8[K:clef=treble]AcFA DFB,D[K:clef=bass] | 
[V:1] z2 .^g2 ga/b/agf4z4 | 
[V:2] ^G,B,^E,G,C,4[K:clef=treble]AcFA DFB,D[K:clef=bass] | 
[V:1] z2 .^g2 ga/b/agf4z4 | 
[V:2] ^G,B,^E,G,C,4[K:clef=treble]AcFA =CEA,C[K:clef=bass] | 
[V:1] z2 .f2 f=g/a/gfe4z4 | 
[V:2] F,A,^D,F,B,,4GBEG =CEA,C | 
[V:1] z2 .f2 fg/a/gfe4z4 | 
[V:2] F,A,^D,F,B,,4GBEG B,EG,B, | 
[V:1] z2 .e2 ef/g/fed4z4 | 
[V:2] E,G,C,E,A,,4FADF B,DG,B, | 
[V:1] z2 .e2 ef/g/fe dagf edcd | 
[V:2] E,G,C,E, A,,2G,,2F,,4G,,4 | 
[V:1] !mordent!A4z4z c'ae cAEC | 
[V:2] A,,C,E,A,[K:clef=treble] CEAc[K:clef=bass]A,,4z4 | 
[V:1] a4z4z c'ae caec | 
[V:2] A,,C,E,A,[K:clef=treble] CEAc[K:clef=bass]A,,4z4 | 
[V:1] AecA EC z2!fermata!z8 | 
[V:2] z4z2 A,E,A,,4!fermata!z4 | 
[V:1] x8._B2_b4a2- & a2{/=g}=fe d2=c2z4^c2d2 | 
[V:2] z4A6G4[=F2A2] | 
[V:1] a2g4=f2-f4!accent!^d2e2 & _B4A4!accent!^G2A2z4 | 
[V:2] G4x12 & E2D2C2D2A,4z4 | 
[V:1] x8._B2_b4a2- & a2{/=g}=fe d2=c2z4^c2d2 | 
[V:2] z4A6G4[=F2A2] | 
[V:1] a2g4=f2-f4!accent!^d2e2 & _B4A4!accent!^G2A2z4 | 
[V:2] G4x12 & E2D2C2D2A,4z4 | 
[V:1] z c'a=g ecAg^f4z2 .d'2 | 
[V:2] A,,4z4D,,F,,A,,D, F,A,DF | 
[V:1] c'aec Acegf4z2 .d'2 | 
[V:2] A,,4z4D,,F,,A,,D, F,A,DF | 
[V:1] c'age cAge face dfAc | 
[V:2] A,,4z4D,4F,4 | 
[V:1] Bbag fede FAdD EecG | 
[V:2] G,4G,,4A,4G,4 | 
[V:1] z gfe dcBA ^ABFG ^DE ^A,B, | 
[V:2] F,4z4G,4z2 z2 | 
[V:1] G,=A,B,C DGFE DE/D/C/D/E2< !mordent!E2D | 
[V:2] z4G,4A,4G,4 | 
[V:1] z gfe dcBA ^ABFG ^DE ^A,B, | 
[V:2] F,4z4G,4z2 z2 | 
[V:1] G,=A,B,C DGFE DE/D/C/D/E2< !trill!E2D/E/ | 
[V:2] z4G,4A,4G,4 | 
[V:1] FDA,D FA,G,E FDFA dFEc | 
[V:2] !accent![D,,4D,4]>.A,,4!accent![D,,6D,6].A,,2 | 
[V:1] fdAF AfeG afdA dage | 
[V:2] !accent![F,,4D,4]>.A,,4!accent![D,,6D,6].A,,2 | 
[V:1] d'afd fd'ec' fd'ec' fd'ec' | 
[V:2] !accent![D,,4D,4]>.A,,4 .[D,,2D,2].A,,2 .[D,,2D,2].A,,2 | 
[V:1] [d4d'4]z4z8 :|]  
[V:2] !accent![D,,4D,4]z4z8 :|]  


